X: 1
T: Desaunays
M: 4/4
L: 1/8
R: hornpipe
K: Dmaj
fe|dFAd cEGB|ADFA ~G2FE|DFAF GBed|ca~a2 bage|
fAdf eAce|dFAd ~B2GE|DFAF GBed|(3cBA (3GFE D2:|
de|fd~d2ad~d2|fdad d'dfd|ge~e2 cege|dcde fdAd|
fd~d2ad~d2|fdad d'dfd|ge~e2 ceae|(3gfe (3cBA d2:|
